modules/feather/icons/send.svg

<?xml version="1.0" encoding="UTF-8"?>
<svg width="24px" height="24px" viewBox="0 0 24 24" version="1.1" xmlns="http://www.w3.org/2000/svg" xmlns:xlink="http://www.w3.org/1999/xlink">
    <g id="send" fill-rule="evenodd">
        <path d="M21.6487738,1.06344816 C21.6777403,1.05260508 21.7071087,1.04315179 21.736776,1.03508828 C22.4803824,0.828657876 23.1713451,1.51962283 22.9649102,2.26322957 C22.9568472,2.29289447 22.9473945,2.32226053 22.9365524,2.35122477 L15.9438584,22.3303504 C15.6446647,23.1851894 14.4540223,23.2337645 14.0861885,22.4061385 L10.2423956,13.7576044 L1.59386153,9.91381155 C0.766235509,9.54597776 0.814810588,8.35533529 1.66964958,8.05614164 L21.6487738,1.06344816 Z M18.1943161,4.39147039 L4.71107508,9.11060473 L10.7785335,11.8072529 L18.1943161,4.39147039 Z M19.6085296,5.80568395 L12.1927471,13.2214665 L14.8893953,19.2889249 L19.6085296,5.80568395 Z" id="Combined-Shape" fill="#000000" fill-rule="nonzero"></path>
    </g>
</svg>

<svg width="24" height="24" viewBox="0 0 24 24" xmlns="http://www.w3.org/2000/svg"><path d="M21.649 1.063a1 1 0 0 1 1.288 1.288l-6.993 19.98c-.3.854-1.49.903-1.858.075l-3.844-8.648-8.648-3.844c-.828-.368-.78-1.559.076-1.858l19.979-6.993zm-3.455 3.328L4.711 9.111l6.068 2.696 7.415-7.416zm1.415 1.415l-7.416 7.415 2.696 6.068 4.72-13.483z" fill-rule="nonzero"/></svg>
